X:1
T: Aye Afloat
C:Muriel A Johnstone
R:Strathspey
%Q:128
K:Bb
M:4/4
L:1/16
|:F2|d8 c4 B2A2|B4D4F8 G3F|GB3 B3c df3 gc3|c3d e4d2c2|
d8c4B2A2|B4D4F4E2D2|E3D EG3 F3B df3|gb3 f3d B6A2|
B3A G_G3 =G4 D2G2|B3A Gc3 AF3 F3A|B3A GB3 c3B Ac3|d3c dg3 f4 ((3fga)|
b8a8|g4 gb3 g3f dB3|G4 G3A B3c df3|gb3 f3d B6:|
